src/gui/emoticons/mushroom.svg

<svg xmlns="http://www.w3.org/2000/svg" xmlns:xlink="http://www.w3.org/1999/xlink" width="16pt" height="16pt" version="1.1" viewBox="0 0 16 16"><defs><linearGradient id="linear0" x1="63.644" x2="65.245" y1="62.776" y2="82.784" gradientTransform="matrix(0.125,0,0,0.125,0,0)" gradientUnits="userSpaceOnUse"><stop offset="0" style="stop-color:#a1887f;stop-opacity:1"/><stop offset=".995" style="stop-color:#eed1c2;stop-opacity:1"/></linearGradient><filter id="alpha" width="100%" height="100%" x="0%" y="0%" filterUnits="objectBoundingBox"><feColorMatrix in="SourceGraphic" type="matrix" values="0 0 0 0 1 0 0 0 0 1 0 0 0 0 1 0 0 0 1 0"/></filter><mask id="mask0"><g filter="url(#alpha)"><rect width="16" height="16" x="0" y="0" style="fill:#000;fill-opacity:.2;stroke:none"/></g></mask><clipPath id="clip1"><rect width="16" height="16"/></clipPath><g id="surface6" clip-path="url(#clip1)"><path style="stroke:none;fill-rule:nonzero;fill:#424242;fill-opacity:1" d="M 8.039062 0.902344 C 8.480469 0.902344 8.917969 0.960938 9.339844 1.078125 C 11.964844 1.800781 13.855469 4.207031 13.941406 6.925781 C 13.960938 7.53125 13.847656 8.347656 13.195312 8.796875 C 13.140625 8.832031 13.074219 8.871094 12.996094 8.914062 C 12.574219 9.136719 12.023438 9.242188 11.3125 9.242188 C 11.078125 9.242188 10.832031 9.234375 10.511719 9.210938 C 10.160156 9.183594 9.796875 9.140625 9.445312 9.09375 C 9.253906 9.070312 9.050781 9.042969 8.855469 9.019531 C 8.628906 8.996094 8.398438 8.984375 8.152344 8.984375 C 7.585938 8.984375 7.027344 9.046875 6.484375 9.109375 C 6.285156 9.132812 6.082031 9.15625 5.882812 9.175781 C 5.507812 9.210938 5.109375 9.246094 4.707031 9.246094 C 4.105469 9.246094 3.609375 9.164062 3.199219 9 C 3.191406 8.996094 3.179688 8.992188 3.171875 8.988281 C 2.160156 8.570312 2.039062 7.515625 2.058594 6.925781 C 2.089844 5.910156 2.363281 4.921875 2.855469 4.058594 C 3.925781 2.171875 6.007812 0.902344 8.039062 0.902344 M 8.039062 0.527344 C 5.796875 0.527344 3.636719 1.917969 2.527344 3.875 C 2.003906 4.800781 1.71875 5.851562 1.683594 6.917969 C 1.652344 7.953125 2.023438 8.921875 3.03125 9.339844 C 3.039062 9.34375 3.046875 9.347656 3.058594 9.351562 C 3.578125 9.558594 4.140625 9.625 4.710938 9.625 C 5.121094 9.625 5.53125 9.589844 5.921875 9.550781 C 6.664062 9.480469 7.40625 9.363281 8.152344 9.363281 C 8.371094 9.363281 8.59375 9.371094 8.8125 9.398438 C 9.371094 9.460938 9.925781 9.546875 10.484375 9.585938 C 10.753906 9.605469 11.03125 9.621094 11.3125 9.621094 C 11.957031 9.621094 12.613281 9.542969 13.171875 9.25 C 13.253906 9.207031 13.332031 9.160156 13.410156 9.109375 C 14.128906 8.613281 14.34375 7.753906 14.316406 6.921875 C 14.226562 4.050781 12.214844 1.484375 9.441406 0.71875 C 8.976562 0.585938 8.503906 0.527344 8.039062 0.527344 Z M 8.039062 0.527344"/></g><linearGradient id="linear1" x1="64" x2="64" y1="61.15" y2="113.42" gradientTransform="matrix(0.125,0,0,0.125,0,0)" gradientUnits="userSpaceOnUse"><stop offset=".005" style="stop-color:#eed1c2;stop-opacity:1"/><stop offset="1" style="stop-color:#eecb92;stop-opacity:1"/></linearGradient><mask id="mask1"><g filter="url(#alpha)"><rect width="16" height="16" x="0" y="0" style="fill:#000;fill-opacity:.2;stroke:none"/></g></mask><clipPath id="clip2"><rect width="16" height="16"/></clipPath><g id="surface9" clip-path="url(#clip2)"><path style="stroke:none;fill-rule:nonzero;fill:#424242;fill-opacity:1" d="M 7.890625 8.824219 L 7.9375 8.824219 C 8.441406 8.824219 8.773438 8.925781 8.941406 9 C 8.984375 9.332031 9.078125 10.015625 9.171875 10.40625 C 9.199219 10.5 9.222656 10.601562 9.25 10.703125 C 9.515625 11.734375 9.914062 13.296875 9.476562 14.246094 C 9.308594 14.605469 9.035156 14.851562 8.636719 15 C 8.421875 15.078125 8.199219 15.121094 7.980469 15.121094 C 7.183594 15.121094 6.542969 14.605469 6.386719 13.839844 C 6.382812 13.824219 6.382812 13.808594 6.378906 13.792969 C 6.375 13.777344 6.371094 13.757812 6.367188 13.742188 C 6.238281 12.867188 6.460938 11.933594 6.671875 11.03125 C 6.722656 10.824219 6.773438 10.605469 6.820312 10.394531 C 6.964844 9.71875 7.027344 9.265625 7.054688 9.011719 C 7.277344 8.925781 7.613281 8.824219 7.890625 8.824219 M 7.890625 8.449219 C 7.347656 8.449219 6.699219 8.753906 6.699219 8.753906 C 6.699219 8.753906 6.683594 9.234375 6.453125 10.316406 C 6.210938 11.4375 5.828125 12.636719 5.996094 13.796875 C 6.003906 13.835938 6.011719 13.875 6.019531 13.914062 C 6.21875 14.882812 7.042969 15.492188 7.980469 15.492188 C 8.234375 15.492188 8.5 15.449219 8.765625 15.351562 C 9.292969 15.15625 9.621094 14.820312 9.816406 14.402344 C 10.355469 13.234375 9.816406 11.4375 9.535156 10.316406 C 9.410156 9.816406 9.285156 8.761719 9.285156 8.761719 C 9.285156 8.761719 8.859375 8.449219 7.9375 8.449219 L 7.914062 8.449219 C 7.90625 8.449219 7.898438 8.449219 7.890625 8.449219 Z M 7.890625 8.449219"/></g><mask id="mask2"><g filter="url(#alpha)"><rect width="16" height="16" x="0" y="0" style="fill:#000;fill-opacity:.501961;stroke:none"/></g></mask><clipPath id="clip3"><rect width="16" height="16"/></clipPath><g id="surface12" clip-path="url(#clip3)"><path style="stroke:none;fill-rule:nonzero;fill:#fff;fill-opacity:1" d="M 9.457031 5.125 C 9.023438 4.375 8.40625 3.554688 7.613281 2.859375 C 6.210938 2.828125 6.589844 3.984375 6.589844 3.984375 C 6.589844 3.984375 7.007812 5.5 9.457031 5.125 Z M 9.457031 5.125"/></g><radialGradient id="radial0" cx="46.245" cy="27.894" r="62.356" fx="46.245" fy="27.894" gradientTransform="matrix(0.125,0,0,0.125,0,0)" gradientUnits="userSpaceOnUse"><stop offset=".005" style="stop-color:#ff7a86;stop-opacity:1"/><stop offset=".813" style="stop-color:#de121c;stop-opacity:1"/><stop offset="1" style="stop-color:#ee000c;stop-opacity:1"/></radialGradient><clipPath id="clip4"><path d="M 6 3 L 10 3 L 10 6 L 6 6 Z M 6 3"/></clipPath><clipPath id="clip5"><path d="M 13.171875 9.246094 C 13.25 9.203125 13.332031 9.15625 13.40625 9.105469 C 14.125 8.609375 14.34375 7.75 14.316406 6.917969 C 14.226562 4.046875 12.210938 1.480469 9.441406 0.714844 C 6.742188 -0.0273438 3.867188 1.511719 2.527344 3.875 C 2.003906 4.800781 1.71875 5.851562 1.683594 6.917969 C 1.652344 7.953125 2.023438 8.921875 3.03125 9.339844 C 3.039062 9.34375 3.046875 9.347656 3.058594 9.351562 C 3.8125 7.949219 10.875 7.613281 13.171875 9.246094 Z M 13.171875 9.246094"/></clipPath><clipPath id="clip6"><path d="M 2 2 L 5 2 L 5 5 L 2 5 Z M 2 2"/></clipPath><clipPath id="clip7"><path d="M 13.171875 9.246094 C 13.25 9.203125 13.332031 9.15625 13.40625 9.105469 C 14.125 8.609375 14.34375 7.75 14.316406 6.917969 C 14.226562 4.046875 12.210938 1.480469 9.441406 0.714844 C 6.742188 -0.0273438 3.867188 1.511719 2.527344 3.875 C 2.003906 4.800781 1.71875 5.851562 1.683594 6.917969 C 1.652344 7.953125 2.023438 8.921875 3.03125 9.339844 C 3.039062 9.34375 3.046875 9.347656 3.058594 9.351562 C 3.8125 7.949219 10.875 7.613281 13.171875 9.246094 Z M 13.171875 9.246094"/></clipPath><clipPath id="clip8"><path d="M 2 6 L 5 6 L 5 9 L 2 9 Z M 2 6"/></clipPath><clipPath id="clip9"><path d="M 13.171875 9.246094 C 13.25 9.203125 13.332031 9.15625 13.40625 9.105469 C 14.125 8.609375 14.34375 7.75 14.316406 6.917969 C 14.226562 4.046875 12.210938 1.480469 9.441406 0.714844 C 6.742188 -0.0273438 3.867188 1.511719 2.527344 3.875 C 2.003906 4.800781 1.71875 5.851562 1.683594 6.917969 C 1.652344 7.953125 2.023438 8.921875 3.03125 9.339844 C 3.039062 9.34375 3.046875 9.347656 3.058594 9.351562 C 3.8125 7.949219 10.875 7.613281 13.171875 9.246094 Z M 13.171875 9.246094"/></clipPath><clipPath id="clip10"><path d="M 10 5 L 13 5 L 13 8 L 10 8 Z M 10 5"/></clipPath><clipPath id="clip11"><path d="M 13.171875 9.246094 C 13.25 9.203125 13.332031 9.15625 13.40625 9.105469 C 14.125 8.609375 14.34375 7.75 14.316406 6.917969 C 14.226562 4.046875 12.210938 1.480469 9.441406 0.714844 C 6.742188 -0.0273438 3.867188 1.511719 2.527344 3.875 C 2.003906 4.800781 1.71875 5.851562 1.683594 6.917969 C 1.652344 7.953125 2.023438 8.921875 3.03125 9.339844 C 3.039062 9.34375 3.046875 9.347656 3.058594 9.351562 C 3.8125 7.949219 10.875 7.613281 13.171875 9.246094 Z M 13.171875 9.246094"/></clipPath><clipPath id="clip12"><path d="M 10 1 L 15 1 L 15 5 L 10 5 Z M 10 1"/></clipPath><clipPath id="clip13"><path d="M 13.171875 9.246094 C 13.25 9.203125 13.332031 9.15625 13.40625 9.105469 C 14.125 8.609375 14.34375 7.75 14.316406 6.917969 C 14.226562 4.046875 12.210938 1.480469 9.441406 0.714844 C 6.742188 -0.0273438 3.867188 1.511719 2.527344 3.875 C 2.003906 4.800781 1.71875 5.851562 1.683594 6.917969 C 1.652344 7.953125 2.023438 8.921875 3.03125 9.339844 C 3.039062 9.34375 3.046875 9.347656 3.058594 9.351562 C 3.8125 7.949219 10.875 7.613281 13.171875 9.246094 Z M 13.171875 9.246094"/></clipPath><clipPath id="clip14"><path d="M 5 0 L 9 0 L 9 3 L 5 3 Z M 5 0"/></clipPath><clipPath id="clip15"><path d="M 13.171875 9.246094 C 13.25 9.203125 13.332031 9.15625 13.40625 9.105469 C 14.125 8.609375 14.34375 7.75 14.316406 6.917969 C 14.226562 4.046875 12.210938 1.480469 9.441406 0.714844 C 6.742188 -0.0273438 3.867188 1.511719 2.527344 3.875 C 2.003906 4.800781 1.71875 5.851562 1.683594 6.917969 C 1.652344 7.953125 2.023438 8.921875 3.03125 9.339844 C 3.039062 9.34375 3.046875 9.347656 3.058594 9.351562 C 3.8125 7.949219 10.875 7.613281 13.171875 9.246094 Z M 13.171875 9.246094"/></clipPath><mask id="mask3"><g filter="url(#alpha)"><rect width="16" height="16" x="0" y="0" style="fill:#000;fill-opacity:.2;stroke:none"/></g></mask><clipPath id="clip16"><rect width="16" height="16"/></clipPath><g id="surface15" clip-path="url(#clip16)"><path style="stroke:none;fill-rule:nonzero;fill:#424242;fill-opacity:1" d="M 8.039062 0.902344 C 8.480469 0.902344 8.921875 0.960938 9.339844 1.078125 C 11.964844 1.800781 13.855469 4.207031 13.941406 6.925781 C 13.960938 7.53125 13.847656 8.347656 13.195312 8.796875 C 13.191406 8.796875 13.183594 8.800781 13.179688 8.804688 C 12.105469 8.160156 10.199219 7.777344 7.996094 7.777344 C 6.117188 7.777344 3.800781 8.074219 2.953125 8.882812 C 2.140625 8.410156 2.042969 7.472656 2.058594 6.929688 C 2.089844 5.914062 2.363281 4.921875 2.855469 4.058594 C 3.925781 2.171875 6.007812 0.902344 8.039062 0.902344 M 8.039062 0.527344 C 5.796875 0.527344 3.636719 1.917969 2.527344 3.875 C 2.003906 4.800781 1.71875 5.851562 1.683594 6.917969 C 1.652344 7.953125 2.023438 8.921875 3.03125 9.339844 C 3.039062 9.34375 3.046875 9.347656 3.058594 9.351562 C 3.460938 8.601562 5.675781 8.15625 8 8.15625 C 10.011719 8.15625 12.105469 8.488281 13.171875 9.246094 C 13.253906 9.203125 13.332031 9.160156 13.410156 9.105469 C 14.128906 8.609375 14.34375 7.75 14.316406 6.917969 C 14.226562 4.050781 12.214844 1.484375 9.441406 0.71875 C 8.976562 0.585938 8.503906 0.527344 8.039062 0.527344 Z M 8.039062 0.527344"/></g></defs><g id="surface1"><path style="stroke:none;fill-rule:nonzero;fill:url(#linear0)" d="M 3 9.328125 C 3.890625 9.6875 4.871094 9.640625 5.808594 9.546875 C 6.765625 9.453125 7.734375 9.285156 8.699219 9.394531 C 9.257812 9.457031 9.808594 9.542969 10.371094 9.582031 C 11.242188 9.648438 12.339844 9.65625 13.140625 9.234375 C 11 7.488281 3.707031 7.683594 3 9.328125 Z M 3 9.328125"/><use mask="url(#mask0)" xlink:href="#surface6"/><path style="stroke:none;fill-rule:nonzero;fill:url(#linear1)" d="M 9.535156 10.316406 C 9.410156 9.816406 9.285156 8.761719 9.285156 8.761719 C 9.285156 8.761719 8.851562 8.445312 7.914062 8.449219 C 7.367188 8.4375 6.695312 8.753906 6.695312 8.753906 C 6.695312 8.753906 6.683594 9.234375 6.449219 10.316406 C 6.207031 11.441406 5.828125 12.640625 5.996094 13.796875 C 6 13.835938 6.011719 13.875 6.019531 13.914062 C 6.699219 14.09375 7.609375 13.628906 8.398438 13.628906 C 8.53125 13.628906 8.800781 13.898438 9.066406 14.164062 C 9.316406 14.320312 9.570312 14.394531 9.8125 14.402344 C 10.355469 13.234375 9.816406 11.4375 9.535156 10.316406 Z M 9.535156 10.316406"/><path style="stroke:none;fill-rule:nonzero;fill:#efebe9;fill-opacity:1" d="M 8.398438 13.628906 C 7.609375 13.628906 6.699219 14.09375 6.019531 13.914062 C 6.269531 15.148438 7.542969 15.800781 8.765625 15.351562 C 9.296875 15.15625 9.625 14.820312 9.816406 14.402344 C 9.574219 14.390625 9.316406 14.316406 9.070312 14.164062 C 8.800781 13.894531 8.535156 13.628906 8.398438 13.628906 Z M 8.398438 13.628906"/><use mask="url(#mask1)" xlink:href="#surface9"/><use mask="url(#mask2)" xlink:href="#surface12"/><path style="stroke:none;fill-rule:nonzero;fill:url(#radial0)" d="M 13.171875 9.246094 C 13.25 9.203125 13.332031 9.15625 13.40625 9.105469 C 14.125 8.609375 14.34375 7.75 14.316406 6.917969 C 14.226562 4.046875 12.210938 1.480469 9.441406 0.714844 C 6.742188 -0.0273438 3.867188 1.511719 2.527344 3.875 C 2.003906 4.800781 1.71875 5.851562 1.683594 6.917969 C 1.652344 7.953125 2.023438 8.921875 3.03125 9.339844 C 3.039062 9.34375 3.046875 9.347656 3.058594 9.351562 C 3.8125 7.949219 10.875 7.613281 13.171875 9.246094 Z M 13.171875 9.246094"/><g clip-path="url(#clip4)" clip-rule="nonzero"><g clip-path="url(#clip5)" clip-rule="nonzero"><path style="stroke:none;fill-rule:nonzero;fill:#ffd9cf;fill-opacity:1" d="M 9.3125 4.390625 C 9.3125 3.785156 8.609375 3.296875 7.738281 3.296875 C 6.871094 3.296875 6.167969 3.785156 6.167969 4.390625 C 6.167969 4.996094 6.871094 5.488281 7.738281 5.488281 C 8.609375 5.488281 9.3125 4.996094 9.3125 4.390625 Z M 9.3125 4.390625"/></g></g><g clip-path="url(#clip6)" clip-rule="nonzero"><g clip-path="url(#clip7)" clip-rule="nonzero"><path style="stroke:none;fill-rule:nonzero;fill:#ffd9cf;fill-opacity:1" d="M 4.792969 3.640625 C 4.792969 3.144531 4.234375 2.746094 3.550781 2.746094 C 2.863281 2.746094 2.308594 3.144531 2.308594 3.640625 C 2.308594 4.136719 2.863281 4.539062 3.550781 4.539062 C 4.234375 4.539062 4.792969 4.136719 4.792969 3.640625 Z M 4.792969 3.640625"/></g></g><g clip-path="url(#clip8)" clip-rule="nonzero"><g clip-path="url(#clip9)" clip-rule="nonzero"><path style="stroke:none;fill-rule:nonzero;fill:#ffd9cf;fill-opacity:1" d="M 4.859375 7.007812 C 4.859375 6.453125 4.3125 6.003906 3.636719 6.003906 C 2.964844 6.003906 2.417969 6.453125 2.417969 7.007812 C 2.417969 7.5625 2.964844 8.015625 3.636719 8.015625 C 4.3125 8.015625 4.859375 7.5625 4.859375 7.007812 Z M 4.859375 7.007812"/></g></g><g clip-path="url(#clip10)" clip-rule="nonzero"><g clip-path="url(#clip11)" clip-rule="nonzero"><path style="stroke:none;fill-rule:nonzero;fill:#ffd9cf;fill-opacity:1" d="M 12.957031 6.785156 C 12.957031 6.292969 12.496094 5.890625 11.933594 5.890625 C 11.367188 5.890625 10.910156 6.292969 10.910156 6.785156 C 10.910156 7.28125 11.367188 7.679688 11.933594 7.679688 C 12.496094 7.679688 12.957031 7.28125 12.957031 6.785156 Z M 12.957031 6.785156"/></g></g><g clip-path="url(#clip12)" clip-rule="nonzero"><g clip-path="url(#clip13)" clip-rule="nonzero"><path style="stroke:none;fill-rule:nonzero;fill:#ffd9cf;fill-opacity:1" d="M 12.59375 1.835938 C 11.609375 1.648438 10.707031 2.046875 10.578125 2.722656 C 10.449219 3.402344 11.144531 4.105469 12.125 4.289062 C 13.109375 4.476562 14.007812 4.078125 14.136719 3.402344 C 14.265625 2.722656 13.574219 2.023438 12.59375 1.835938 Z M 12.59375 1.835938"/></g></g><g clip-path="url(#clip14)" clip-rule="nonzero"><g clip-path="url(#clip15)" clip-rule="nonzero"><path style="stroke:none;fill-rule:nonzero;fill:#ffd9cf;fill-opacity:1" d="M 8.007812 0.59375 C 7.808594 0.09375 7.09375 -0.0859375 6.40625 0.1875 C 5.722656 0.457031 5.328125 1.085938 5.527344 1.582031 C 5.726562 2.082031 6.445312 2.265625 7.128906 1.992188 C 7.8125 1.71875 8.207031 1.09375 8.007812 0.59375 Z M 8.007812 0.59375"/></g></g><use mask="url(#mask3)" xlink:href="#surface15"/></g></svg>

<svg xmlns="http://www.w3.org/2000/svg" xmlns:xlink="http://www.w3.org/1999/xlink" width="16pt" height="16pt" viewBox="0 0 16 16"><defs><clipPath id="b"><path d="M0 0h16v16H0z"/></clipPath><clipPath id="c"><path d="M0 0h16v16H0z"/></clipPath><clipPath id="d"><path d="M0 0h16v16H0z"/></clipPath><clipPath id="o"><path d="M6 3h4v3H6Zm0 0"/></clipPath><clipPath id="p"><path d="M13.172 9.246c.078-.043.16-.09.234-.14.719-.497.938-1.356.91-2.188-.09-2.871-2.105-5.438-4.875-6.203-2.699-.742-5.574.797-6.914 3.16a6.64 6.64 0 0 0-.843 3.043c-.032 1.035.34 2.004 1.347 2.422l.028.012c.753-1.403 7.816-1.739 10.113-.106m0 0"/></clipPath><clipPath id="q"><path d="M2 2h3v3H2Zm0 0"/></clipPath><clipPath id="r"><path d="M13.172 9.246c.078-.043.16-.09.234-.14.719-.497.938-1.356.91-2.188-.09-2.871-2.105-5.438-4.875-6.203-2.699-.742-5.574.797-6.914 3.16a6.64 6.64 0 0 0-.843 3.043c-.032 1.035.34 2.004 1.347 2.422l.028.012c.753-1.403 7.816-1.739 10.113-.106m0 0"/></clipPath><clipPath id="s"><path d="M2 6h3v3H2Zm0 0"/></clipPath><clipPath id="t"><path d="M13.172 9.246c.078-.043.16-.09.234-.14.719-.497.938-1.356.91-2.188-.09-2.871-2.105-5.438-4.875-6.203-2.699-.742-5.574.797-6.914 3.16a6.64 6.64 0 0 0-.843 3.043c-.032 1.035.34 2.004 1.347 2.422l.028.012c.753-1.403 7.816-1.739 10.113-.106m0 0"/></clipPath><clipPath id="u"><path d="M10 5h3v3h-3Zm0 0"/></clipPath><clipPath id="v"><path d="M13.172 9.246c.078-.043.16-.09.234-.14.719-.497.938-1.356.91-2.188-.09-2.871-2.105-5.438-4.875-6.203-2.699-.742-5.574.797-6.914 3.16a6.64 6.64 0 0 0-.843 3.043c-.032 1.035.34 2.004 1.347 2.422l.028.012c.753-1.403 7.816-1.739 10.113-.106m0 0"/></clipPath><clipPath id="w"><path d="M10 1h5v4h-5Zm0 0"/></clipPath><clipPath id="x"><path d="M13.172 9.246c.078-.043.16-.09.234-.14.719-.497.938-1.356.91-2.188-.09-2.871-2.105-5.438-4.875-6.203-2.699-.742-5.574.797-6.914 3.16a6.64 6.64 0 0 0-.843 3.043c-.032 1.035.34 2.004 1.347 2.422l.028.012c.753-1.403 7.816-1.739 10.113-.106m0 0"/></clipPath><clipPath id="y"><path d="M5 0h4v3H5Zm0 0"/></clipPath><clipPath id="z"><path d="M13.172 9.246c.078-.043.16-.09.234-.14.719-.497.938-1.356.91-2.188-.09-2.871-2.105-5.438-4.875-6.203-2.699-.742-5.574.797-6.914 3.16a6.64 6.64 0 0 0-.843 3.043c-.032 1.035.34 2.004 1.347 2.422l.028.012c.753-1.403 7.816-1.739 10.113-.106m0 0"/></clipPath><clipPath id="e"><path d="M0 0h16v16H0z"/></clipPath><mask id="g"><g filter="url(#a)"><path d="M0 0h16v16H0z" style="fill:#000;fill-opacity:.2;stroke:none"/></g></mask><mask id="j"><g filter="url(#a)"><path d="M0 0h16v16H0z" style="fill:#000;fill-opacity:.2;stroke:none"/></g></mask><mask id="l"><g filter="url(#a)"><path d="M0 0h16v16H0z" style="fill:#000;fill-opacity:.501961;stroke:none"/></g></mask><mask id="A"><g filter="url(#a)"><path d="M0 0h16v16H0z" style="fill:#000;fill-opacity:.2;stroke:none"/></g></mask><g id="h" clip-path="url(#b)"><path d="M8.04.902c.44 0 .878.059 1.3.176 2.625.723 4.515 3.129 4.601 5.848.02.605-.093 1.422-.746 1.87a3 3 0 0 1-.199.118c-.422.223-.973.328-1.684.328a11 11 0 0 1-.8-.031c-.352-.027-.715-.07-1.067-.117-.191-.024-.394-.051-.59-.074a7 7 0 0 0-.703-.036c-.566 0-1.125.063-1.668.125q-.3.037-.601.067c-.375.035-.774.07-1.176.07-.602 0-1.098-.082-1.508-.246l-.027-.012C2.16 8.57 2.039 7.516 2.059 6.926a6.2 6.2 0 0 1 .796-2.867C3.925 2.172 6.008.902 8.04.902m0-.375c-2.242 0-4.402 1.391-5.512 3.348a6.64 6.64 0 0 0-.843 3.043c-.032 1.035.34 2.004 1.347 2.422l.028.012c.52.207 1.082.273 1.652.273.41 0 .82-.035 1.21-.074.743-.07 1.485-.188 2.231-.188.22 0 .442.008.66.035.56.063 1.114.149 1.672.188.27.02.547.035.829.035.644 0 1.3-.078 1.859-.371q.122-.065.238-.14c.719-.497.934-1.356.906-2.188-.09-2.871-2.101-5.438-4.875-6.203A5 5 0 0 0 8.04.527m0 0" style="stroke:none;fill-rule:nonzero;fill:#424242;fill-opacity:1"/></g><g id="k" clip-path="url(#c)"><path d="M7.89 8.824h.048c.503 0 .835.102 1.003.176.043.332.137 1.016.23 1.406.028.094.052.196.079.297.266 1.031.664 2.594.227 3.543-.168.36-.442.606-.84.754a1.9 1.9 0 0 1-.657.121c-.796 0-1.437-.516-1.593-1.281q-.004-.024-.008-.047l-.012-.05c-.129-.876.094-1.81.305-2.712.05-.207.101-.426.148-.636.145-.676.207-1.13.235-1.383.222-.086.558-.188.836-.188m0-.375c-.543 0-1.192.305-1.192.305s-.015.48-.246 1.562c-.242 1.121-.625 2.32-.457 3.48l.024.118c.199.969 1.023 1.578 1.96 1.578.254 0 .52-.043.786-.14.527-.196.855-.532 1.05-.95.54-1.168 0-2.964-.28-4.086-.126-.5-.25-1.554-.25-1.554s-.427-.313-1.348-.313H7.89m0 0" style="stroke:none;fill-rule:nonzero;fill:#424242;fill-opacity:1"/></g><g id="m" clip-path="url(#d)"><path d="M9.457 5.125a9.1 9.1 0 0 0-1.844-2.266C6.211 2.83 6.59 3.984 6.59 3.984S7.008 5.5 9.457 5.125m0 0" style="stroke:none;fill-rule:nonzero;fill:#fff;fill-opacity:1"/></g><g id="B" clip-path="url(#e)"><path d="M8.04.902c.44 0 .882.059 1.3.176 2.625.723 4.515 3.129 4.601 5.848.02.605-.093 1.422-.746 1.87a.03.03 0 0 0-.015.009c-1.075-.645-2.98-1.028-5.184-1.028-1.879 0-4.195.297-5.043 1.106-.812-.473-.91-1.41-.894-1.953a6.2 6.2 0 0 1 .796-2.871C3.925 2.172 6.008.902 8.04.902m0-.375c-2.242 0-4.402 1.391-5.512 3.348a6.64 6.64 0 0 0-.843 3.043c-.032 1.035.34 2.004 1.347 2.422l.028.012C3.46 8.602 5.676 8.156 8 8.156c2.012 0 4.105.332 5.172 1.09.082-.043.16-.086.238-.14.719-.497.934-1.356.906-2.188-.09-2.867-2.101-5.434-4.875-6.2A5 5 0 0 0 8.04.529m0 0" style="stroke:none;fill-rule:nonzero;fill:#424242;fill-opacity:1"/></g><linearGradient id="f" x1="63.644" x2="65.245" y1="62.776" y2="82.784" gradientTransform="scale(.125)" gradientUnits="userSpaceOnUse"><stop offset="0" style="stop-color:#a1887f;stop-opacity:1"/><stop offset=".995" style="stop-color:#eed1c2;stop-opacity:1"/></linearGradient><linearGradient id="i" x1="64" x2="64" y1="61.15" y2="113.42" gradientTransform="scale(.125)" gradientUnits="userSpaceOnUse"><stop offset=".005" style="stop-color:#eed1c2;stop-opacity:1"/><stop offset="1" style="stop-color:#eecb92;stop-opacity:1"/></linearGradient><radialGradient id="n" cx="46.245" cy="27.894" r="62.356" fx="46.245" fy="27.894" gradientTransform="scale(.125)" gradientUnits="userSpaceOnUse"><stop offset=".005" style="stop-color:#ff7a86;stop-opacity:1"/><stop offset=".813" style="stop-color:#de121c;stop-opacity:1"/><stop offset="1" style="stop-color:#ee000c;stop-opacity:1"/></radialGradient><filter id="a" width="100%" height="100%" x="0%" y="0%" filterUnits="objectBoundingBox"><feColorMatrix in="SourceGraphic" values="0 0 0 0 1 0 0 0 0 1 0 0 0 0 1 0 0 0 1 0"/></filter></defs><path d="M3 9.328c.89.36 1.871.313 2.809.219.957-.094 1.925-.262 2.89-.152.559.062 1.11.148 1.672.187.871.066 1.969.074 2.77-.348C11 7.488 3.707 7.684 3 9.328m0 0" style="stroke:none;fill-rule:nonzero;fill:url(#f)"/><use xlink:href="#h" mask="url(#g)"/><path d="M9.535 10.316c-.125-.5-.25-1.554-.25-1.554s-.433-.317-1.37-.313c-.548-.011-1.22.305-1.22.305s-.011.48-.246 1.562c-.242 1.125-.62 2.325-.453 3.48.004.04.016.079.024.118.68.18 1.59-.285 2.378-.285.133 0 .403.27.668.535.25.156.504.23.746.238.543-1.168.004-2.964-.277-4.086m0 0" style="stroke:none;fill-rule:nonzero;fill:url(#i)"/><path d="M8.398 13.629c-.789 0-1.699.465-2.378.285.25 1.234 1.523 1.887 2.746 1.438.53-.196.859-.532 1.05-.95a1.56 1.56 0 0 1-.746-.238c-.27-.27-.535-.535-.672-.535m0 0" style="stroke:none;fill-rule:nonzero;fill:#efebe9;fill-opacity:1"/><use xlink:href="#k" mask="url(#j)"/><use xlink:href="#m" mask="url(#l)"/><path d="M13.172 9.246c.078-.043.16-.09.234-.14.719-.497.938-1.356.91-2.188-.09-2.871-2.105-5.438-4.875-6.203-2.699-.742-5.574.797-6.914 3.16a6.64 6.64 0 0 0-.843 3.043c-.032 1.035.34 2.004 1.347 2.422l.028.012c.753-1.403 7.816-1.739 10.113-.106m0 0" style="stroke:none;fill-rule:nonzero;fill:url(#n)"/><g clip-path="url(#o)"><g clip-path="url(#p)"><path d="M9.313 4.39c0-.605-.704-1.093-1.575-1.093-.867 0-1.57.488-1.57 1.094 0 .605.703 1.097 1.57 1.097.871 0 1.574-.492 1.574-1.097m0 0" style="stroke:none;fill-rule:nonzero;fill:#ffd9cf;fill-opacity:1"/></g></g><g clip-path="url(#q)"><g clip-path="url(#r)"><path d="M4.793 3.64c0-.495-.559-.894-1.242-.894-.688 0-1.242.399-1.242.895s.554.898 1.242.898c.683 0 1.242-.402 1.242-.898m0 0" style="stroke:none;fill-rule:nonzero;fill:#ffd9cf;fill-opacity:1"/></g></g><g clip-path="url(#s)"><g clip-path="url(#t)"><path d="M4.86 7.008c0-.555-.548-1.004-1.223-1.004-.672 0-1.219.45-1.219 1.004 0 .555.547 1.008 1.219 1.008.676 0 1.222-.453 1.222-1.008m0 0" style="stroke:none;fill-rule:nonzero;fill:#ffd9cf;fill-opacity:1"/></g></g><g clip-path="url(#u)"><g clip-path="url(#v)"><path d="M12.957 6.785c0-.492-.46-.894-1.023-.894-.567 0-1.024.402-1.024.894 0 .496.457.895 1.024.895.562 0 1.023-.399 1.023-.895m0 0" style="stroke:none;fill-rule:nonzero;fill:#ffd9cf;fill-opacity:1"/></g></g><g clip-path="url(#w)"><g clip-path="url(#x)"><path d="M12.594 1.836c-.985-.188-1.887.21-2.016.887-.129.68.567 1.382 1.547 1.566.984.188 1.883-.21 2.012-.887.129-.68-.563-1.379-1.543-1.566m0 0" style="stroke:none;fill-rule:nonzero;fill:#ffd9cf;fill-opacity:1"/></g></g><g clip-path="url(#y)"><g clip-path="url(#z)"><path d="M8.008.594c-.2-.5-.914-.68-1.602-.406-.683.269-1.078.898-.879 1.394.2.5.918.684 1.602.41.684-.273 1.078-.898.879-1.398m0 0" style="stroke:none;fill-rule:nonzero;fill:#ffd9cf;fill-opacity:1"/></g></g><use xlink:href="#B" mask="url(#A)"/></svg>
